LUTS/Candy Commercial.cube
#Created by: Damian Krzywonos for Cities Skylines 2 Lumina mod
#unity log or linear to sRGB not completely sure
TITLE "Candy Commercial"
LUT_3D_SIZE 5
DOMAIN_MIN 0.000000 0.000000 0.000000
DOMAIN_MAX 0.903226 0.903226 0.903226
0.000000 0.000000 0.000000
0.070067 0.000000 0.000000
0.956269 0.000000 0.000000
1.000000 0.053110 0.022234
1.000000 0.083389 0.065381
0.000000 0.061055 0.000000
0.067352 0.053995 0.000000
0.908212 0.018068 0.007743
1.000000 0.110534 0.081720
1.000000 0.136497 0.100909
0.030767 0.776393 0.000000
0.072112 0.756860 0.000000
0.900975 0.648823 0.073478
1.000000 0.732634 0.134181
1.000000 0.768532 0.152766
0.139772 1.000000 0.000000
0.186134 1.000000 0.000000
0.792258 1.000000 0.058674
1.000000 0.996813 0.122171
1.000000 0.999875 0.161499
0.199096 1.000000 0.000000
0.262025 1.000000 0.000000
0.816709 1.000000 0.061593
1.000000 1.000000 0.111469
1.000000 1.000000 0.138004
0.000000 0.000000 0.089364
0.079436 0.025687 0.080152
1.000000 0.000000 0.000000
1.000000 0.000000 0.062352
1.000000 0.056987 0.086588
0.000000 0.060143 0.058947
0.053395 0.053730 0.053916
0.927545 0.011826 0.008289
1.000000 0.090919 0.082910
1.000000 0.116444 0.106022
0.017491 0.783518 0.000000
0.062472 0.762391 0.000000
0.881261 0.650521 0.090692
1.000000 0.730630 0.157874
1.000000 0.765068 0.176841
0.129915 1.000000 0.000000
0.165650 1.000000 0.000000
0.780491 1.000000 0.080680
1.000000 0.996536 0.142013
1.000000 0.999257 0.190371
0.176828 1.000000 0.000000
0.237759 1.000000 0.000715
0.803539 1.000000 0.083436
1.000000 1.000000 0.130000
1.000000 1.000000 0.160398
0.044066 0.078204 1.000000
0.072805 0.076686 1.000000
1.000000 0.416257 1.000000
1.000000 0.338805 1.000000
1.000000 0.294479 1.000000
0.027971 0.086805 1.000000
0.059742 0.088065 1.000000
1.000000 0.397534 1.000000
1.000000 0.318610 1.000000
1.000000 0.277698 1.000000
0.000000 0.736752 0.724223
0.000000 0.727164 0.714891
0.753620 0.753495 0.753408
1.000000 0.675476 0.681411
1.000000 0.622096 0.627516
0.013977 1.000000 0.350694
0.017376 1.000000 0.353810
0.710793 1.000000 0.506731
1.000000 1.000000 0.643968
1.000000 1.000000 0.677443
0.005368 1.000000 0.292401
0.078395 1.000000 0.305827
0.691645 1.000000 0.465478
1.000000 1.000000 0.621342
1.000000 1.000000 0.638166
0.143465 0.239749 1.000000
0.166620 0.235276 1.000000
1.000000 0.478129 1.000000
1.000000 0.982629 1.000000
1.000000 1.000000 1.000000
0.122623 0.236419 1.000000
0.146741 0.233415 1.000000
1.000000 0.446284 1.000000
1.000000 0.929373 1.000000
1.000000 0.980856 1.000000
0.000000 0.729776 1.000000
0.006985 0.721767 1.000000
0.684587 0.692540 1.000000
1.000000 0.867685 1.000000
1.000000 0.816029 1.000000
0.000000 1.000000 1.000000
0.011714 1.000000 1.000000
0.548911 1.000000 1.000000
1.000000 1.000000 1.000000
1.000000 1.000000 1.000000
0.000000 1.000000 1.000000
0.051431 1.000000 1.000000
0.570053 1.000000 0.999816
1.000000 1.000000 1.000000
1.000000 1.000000 1.000000
0.171237 0.278878 1.000000
0.191694 0.273730 1.000000
1.000000 0.464107 1.000000
1.000000 1.000000 1.000000
1.000000 1.000000 1.000000
0.150713 0.275365 1.000000
0.172673 0.271018 1.000000
1.000000 0.434405 1.000000
1.000000 0.992816 1.000000
1.000000 1.000000 1.000000
0.000000 0.740557 1.000000
0.013255 0.732208 1.000000
0.641808 0.651779 1.000000
1.000000 0.820057 1.000000
1.000000 0.843018 1.000000
0.000000 1.000000 1.000000
0.013568 1.000000 1.000000
0.565413 1.000000 1.000000
1.000000 1.000000 1.000000
1.000000 1.000000 1.000000
0.000000 1.000000 1.000000
0.051034 1.000000 1.000000
0.520395 1.000000 1.000000
1.000000 1.000000 1.000000
1.000000 1.000000 1.000000
