LUTS/Candy Commercial.cube
#Created by: Damian Krzywonos for Cities Skylines 2 Lumina mod
#unity log or linear to sRGB not completely sure
TITLE "Candy Commercial"
LUT_3D_SIZE 8
DOMAIN_MIN 0.000000 0.000000 0.000000
DOMAIN_MAX 0.903226 0.903226 0.903226
0.000000 0.000000 0.000000
0.000929 0.000000 0.000000
0.142932 0.000000 0.000000
0.602826 0.000000 0.000000
1.000000 0.000000 0.000000
1.000000 0.037781 0.000000
1.000000 0.072724 0.054443
1.000000 0.083389 0.065381
0.000000 0.000847 0.000000
0.000686 0.000497 0.000000
0.141260 0.000000 0.000000
0.602327 0.000000 0.000000
1.000000 0.000000 0.000000
1.000000 0.040595 0.001347
1.000000 0.073994 0.055068
1.000000 0.084566 0.065841
0.000000 0.115712 0.000000
0.000000 0.115296 0.000000
0.143370 0.099822 0.000000
0.548277 0.091357 0.014102
1.000000 0.122088 0.067241
1.000000 0.166140 0.097375
1.000000 0.188271 0.109969
1.000000 0.198181 0.114618
0.000000 0.535356 0.000000
0.000000 0.535091 0.000000
0.095932 0.545284 0.000000
0.676164 0.473457 0.049054
1.000000 0.543594 0.108727
1.000000 0.606081 0.144940
1.000000 0.633187 0.168199
1.000000 0.643006 0.176869
0.082412 0.972364 0.000000
0.083087 0.972086 0.000000
0.152981 0.941521 0.000000
0.555895 0.829154 0.000000
0.993760 0.792069 0.094765
1.000000 0.818874 0.130364
1.000000 0.852302 0.136091
1.000000 0.867497 0.146845
0.129560 1.000000 0.000000
0.130123 1.000000 0.000000
0.241116 1.000000 0.000000
0.580487 1.000000 0.009693
0.936670 0.986220 0.078142
1.000000 0.977757 0.118043
1.000000 0.983458 0.150254
1.000000 0.990456 0.165707
0.168178 1.000000 0.000000
0.169605 1.000000 0.000000
0.304911 1.000000 0.000000
0.602909 1.000000 0.009331
0.945059 1.000000 0.078899
1.000000 1.000000 0.107265
1.000000 1.000000 0.131182
1.000000 1.000000 0.146513
0.199096 1.000000 0.000000
0.200692 1.000000 0.000000
0.337369 1.000000 0.000000
0.618241 1.000000 0.011171
0.952729 1.000000 0.080598
1.000000 1.000000 0.105237
1.000000 1.000000 0.125007
1.000000 1.000000 0.138004
0.000000 0.000000 0.001327
0.001371 0.000000 0.001480
0.147505 0.000000 0.000000
0.610773 0.000000 0.000000
1.000000 0.000000 0.000000
1.000000 0.036795 0.001322
1.000000 0.072345 0.055091
1.000000 0.082997 0.065920
0.000000 0.000846 0.000918
0.000311 0.000312 0.000412
0.142347 0.000000 0.000000
0.602873 0.000000 0.000000
1.000000 0.000000 0.000000
1.000000 0.039702 0.006226
1.000000 0.073590 0.055712
1.000000 0.084171 0.066377
0.000000 0.115896 0.000000
0.000000 0.115463 0.000000
0.142759 0.099885 0.000000
0.548476 0.091003 0.014139
1.000000 0.121512 0.067218
1.000000 0.165551 0.097447
1.000000 0.187725 0.110017
1.000000 0.197613 0.114699
0.000000 0.535743 0.000000
0.000000 0.535767 0.000000
0.095711 0.546176 0.000000
0.676504 0.474232 0.049756
1.000000 0.543561 0.109031
1.000000 0.605956 0.145551
1.000000 0.632966 0.168741
1.000000 0.642748 0.177339
0.082177 0.972412 0.000000
0.082876 0.972134 0.000000
0.152645 0.941584 0.000000
0.555609 0.829200 0.000000
0.993699 0.792088 0.095201
1.000000 0.818899 0.130817
1.000000 0.852259 0.136612
1.000000 0.867440 0.147412
0.129383 1.000000 0.000000
0.129854 1.000000 0.000000
0.240568 1.000000 0.000000
0.580131 1.000000 0.010462
0.936400 0.986227 0.078673
1.000000 0.977737 0.118452
1.000000 0.983415 0.150819
1.000000 0.990414 0.166358
0.167766 1.000000 0.000000
0.169128 1.000000 0.000000
0.304424 1.000000 0.000000
0.602520 1.000000 0.010075
0.944753 1.000000 0.079439
1.000000 1.000000 0.107826
1.000000 1.000000 0.131609
1.000000 1.000000 0.147014
0.198584 1.000000 0.000000
0.200175 1.000000 0.000000
0.336821 1.000000 0.000000
0.617851 1.000000 0.011777
0.952407 1.000000 0.081139
1.000000 1.000000 0.105814
1.000000 1.000000 0.125425
1.000000 1.000000 0.138475
0.000000 0.000000 0.211802
0.000000 0.000000 0.211446
0.181040 0.039927 0.183408
0.750732 0.000000 0.037061
1.000000 0.000000 0.053759
1.000000 0.022757 0.086282
1.000000 0.015643 0.099523
1.000000 0.045188 0.107414
0.000000 0.000000 0.210537
0.000000 0.000000 0.210188
0.179966 0.040163 0.182271
0.748986 0.000000 0.036708
1.000000 0.000000 0.053668
1.000000 0.023359 0.086445
1.000000 0.016493 0.099817
1.000000 0.047167 0.107729
0.000000 0.113608 0.109398
0.000000 0.113391 0.109234
0.103417 0.102050 0.103739
0.640746 0.044472 0.052602
1.000000 0.081746 0.081478
1.000000 0.123266 0.119271
1.000000 0.144638 0.138143
1.000000 0.154097 0.145809
0.000000 0.595885 0.000000
0.000000 0.596075 0.000000
0.068577 0.613294 0.000000
0.735139 0.560619 0.098726
0.989878 0.538123 0.150704
1.000000 0.587368 0.220126
1.000000 0.603892 0.245426
1.000000 0.609260 0.253516
0.060467 0.977333 0.000000
0.061275 0.977047 0.000000
0.124207 0.947717 0.007479
0.527544 0.833589 0.067686
0.988104 0.794401 0.135406
1.000000 0.820991 0.181458
1.000000 0.848778 0.196500
1.000000 0.861919 0.208154
0.109854 1.000000 0.000000
0.110323 1.000000 0.000000
0.195629 1.000000 0.013105
0.546803 1.000000 0.072434
0.911757 0.986102 0.119384
1.000000 0.974935 0.167580
1.000000 0.979001 0.214583
1.000000 0.986186 0.227637
0.139059 1.000000 0.004458
0.139532 1.000000 0.004835
0.254355 1.000000 0.018551
0.567078 1.000000 0.073470
0.918658 1.000000 0.123200
1.000000 1.000000 0.151542
1.000000 1.000000 0.185908
1.000000 1.000000 0.209558
0.155150 1.000000 0.009550
0.156189 1.000000 0.009747
0.285003 1.000000 0.023513
0.581183 1.000000 0.075076
0.925120 1.000000 0.124916
1.000000 1.000000 0.149568
1.000000 1.000000 0.174723
1.000000 1.000000 0.195294
0.000000 0.000000 0.874436
0.000000 0.000000 0.874241
0.111004 0.008294 0.863582
0.832965 0.218430 0.838302
1.000000 0.182700 0.854906
1.000000 0.135302 0.788875
1.000000 0.122040 0.757015
1.000000 0.117409 0.743750
0.000000 0.000000 0.873824
0.000000 0.000000 0.873630
0.110351 0.008349 0.862697
0.831579 0.218380 0.836918
1.000000 0.182579 0.853528
1.000000 0.135317 0.787514
1.000000 0.122113 0.755652
1.000000 0.117572 0.742569
0.000000 0.082532 0.790338
0.000000 0.082472 0.790187
0.081506 0.086352 0.824572
0.816034 0.258328 0.820843
1.000000 0.179593 0.733477
1.000000 0.142458 0.682514
1.000000 0.134429 0.660377
1.000000 0.132185 0.651597
0.000000 0.522387 0.510079
0.000000 0.522804 0.510503
0.001166 0.603164 0.588185
0.564646 0.566540 0.562907
0.996698 0.511165 0.518626
1.000000 0.456647 0.463459
1.000000 0.462457 0.469211
1.000000 0.464695 0.471408
0.000000 0.996321 0.190741
0.000000 0.996088 0.190790
0.040490 0.974053 0.201600
0.480185 0.986034 0.279485
0.992228 0.912943 0.414881
1.000000 0.850198 0.449818
1.000000 0.816270 0.459981
1.000000 0.824580 0.480089
0.037236 1.000000 0.128698
0.037588 1.000000 0.128902
0.114561 1.000000 0.149292
0.451058 1.000000 0.208382
0.912489 0.998923 0.353078
1.000000 0.971957 0.404787
1.000000 0.956998 0.425420
1.000000 0.969917 0.418253
0.087604 1.000000 0.123037
0.088168 1.000000 0.123231
0.147936 1.000000 0.143591
0.467559 1.000000 0.187816
0.859842 1.000000 0.311730
1.000000 1.000000 0.364605
1.000000 1.000000 0.394175
1.000000 1.000000 0.421679
0.101852 1.000000 0.122008
0.102369 1.000000 0.122147
0.168164 1.000000 0.142617
0.480822 1.000000 0.182188
0.847441 1.000000 0.293581
1.000000 1.000000 0.357841
1.000000 1.000000 0.385130
1.000000 1.000000 0.402861
0.084515 0.148694 1.000000
0.084865 0.148733 1.000000
0.169216 0.144483 1.000000
0.895969 0.268601 1.000000
1.000000 0.649563 1.000000
1.000000 0.681513 1.000000
1.000000 0.640577 1.000000
1.000000 0.617849 1.000000
0.084216 0.148669 1.000000
0.084589 0.148734 1.000000
0.168453 0.144550 1.000000
0.895192 0.268473 1.000000
1.000000 0.648804 1.000000
1.000000 0.680464 1.000000
1.000000 0.639502 1.000000
1.000000 0.616792 1.000000
0.056342 0.156238 1.000000
0.057029 0.156226 1.000000
0.112759 0.156606 1.000000
0.782437 0.254472 1.000000
1.000000 0.577963 1.000000
1.000000 0.590705 1.000000
1.000000 0.545837 1.000000
1.000000 0.522496 1.000000
0.000000 0.512996 1.000000
0.000000 0.512854 1.000000
0.021727 0.502260 1.000000
0.535890 0.548207 1.000000
1.000000 0.678421 1.000000
1.000000 0.571918 0.993118
1.000000 0.532979 0.987462
1.000000 0.517128 0.983758
0.000000 0.920637 0.908914
0.000000 0.920260 0.908585
0.015445 0.891330 0.880925
0.318591 0.974679 0.964037
0.906810 0.907276 0.906520
1.000000 0.863821 0.869648
1.000000 0.853285 0.859106
1.000000 0.853086 0.858231
0.000000 1.000000 0.717730
0.000000 1.000000 0.717435
0.068333 1.000000 0.695050
0.349385 1.000000 0.694290
0.859709 1.000000 0.756627
1.000000 1.000000 0.825473
1.000000 1.000000 0.837099
1.000000 1.000000 0.853973
0.037120 1.000000 0.600554
0.038323 1.000000 0.600377
0.093111 1.000000 0.589697
0.363112 1.000000 0.590343
0.852615 1.000000 0.699827
1.000000 1.000000 0.780764
1.000000 1.000000 0.807028
1.000000 1.000000 0.828546
0.030197 1.000000 0.549946
0.030596 1.000000 0.549873
0.108935 1.000000 0.550230
0.369516 1.000000 0.560332
0.853157 1.000000 0.677870
1.000000 1.000000 0.758551
1.000000 1.000000 0.791358
1.000000 1.000000 0.802432
0.134745 0.227753 1.000000
0.135366 0.227660 1.000000
0.208768 0.218945 1.000000
0.886564 0.289687 1.000000
1.000000 0.753966 1.000000
1.000000 0.939095 1.000000
1.000000 0.988170 1.000000
1.000000 0.989453 1.000000
0.134283 0.227729 1.000000
0.134890 0.227635 1.000000
0.207954 0.218888 1.000000
0.885816 0.289390 1.000000
1.000000 0.752804 1.000000
1.000000 0.937844 1.000000
1.000000 0.987768 1.000000
1.000000 0.989061 1.000000
0.095609 0.226444 1.000000
0.096011 0.226500 1.000000
0.150801 0.221545 1.000000
0.768051 0.269986 1.000000
1.000000 0.652046 1.000000
1.000000 0.830506 1.000000
1.000000 0.878142 1.000000
1.000000 0.883963 1.000000
0.000000 0.539225 1.000000
0.000000 0.539092 1.000000
0.070828 0.530543 1.000000
0.478001 0.496709 1.000000
0.994504 0.599054 1.000000
1.000000 0.715013 1.000000
1.000000 0.740007 1.000000
1.000000 0.734698 1.000000
0.000000 0.910829 1.000000
0.000000 0.910473 1.000000
0.025000 0.881748 1.000000
0.330297 0.867393 1.000000
0.895374 0.899407 1.000000
1.000000 0.957953 1.000000
1.000000 0.946335 1.000000
1.000000 0.925188 1.000000
0.000000 1.000000 1.000000
0.000000 1.000000 1.000000
0.053879 1.000000 1.000000
0.279748 1.000000 0.999503
0.776446 1.000000 1.000000
1.000000 1.000000 1.000000
1.000000 1.000000 1.000000
1.000000 1.000000 1.000000
0.000000 1.000000 1.000000
0.000000 1.000000 1.000000
0.072519 1.000000 0.996831
0.272448 1.000000 0.950100
0.773541 1.000000 0.984953
1.000000 1.000000 0.995107
1.000000 1.000000 1.000000
1.000000 1.000000 1.000000
0.000000 1.000000 0.987120
0.002802 1.000000 0.987005
0.084967 1.000000 0.976121
0.289352 1.000000 0.902148
0.781580 1.000000 0.951081
1.000000 1.000000 0.982329
1.000000 1.000000 0.998231
1.000000 1.000000 1.000000
0.160489 0.263568 1.000000
0.161060 0.263463 1.000000
0.228362 0.253438 1.000000
0.884159 0.302786 1.000000
1.000000 0.741365 1.000000
1.000000 0.998914 1.000000
1.000000 1.000000 1.000000
1.000000 1.000000 1.000000
0.160035 0.263496 1.000000
0.160593 0.263392 1.000000
0.227542 0.253377 1.000000
0.883436 0.302532 1.000000
1.000000 0.740137 1.000000
1.000000 0.998632 1.000000
1.000000 1.000000 1.000000
1.000000 1.000000 1.000000
0.116423 0.261492 1.000000
0.116831 0.261464 1.000000
0.171261 0.253018 1.000000
0.764381 0.284096 1.000000
1.000000 0.635625 1.000000
1.000000 0.898389 1.000000
1.000000 0.948110 1.000000
1.000000 0.977436 1.000000
0.008058 0.553299 1.000000
0.009108 0.553166 1.000000
0.085806 0.545572 1.000000
0.482508 0.506411 1.000000
0.993167 0.582335 1.000000
1.000000 0.750924 1.000000
1.000000 0.797468 1.000000
1.000000 0.817684 1.000000
0.000000 0.903784 1.000000
0.000000 0.903465 1.000000
0.045742 0.881883 1.000000
0.317612 0.824256 1.000000
0.891808 0.897792 1.000000
1.000000 0.962332 1.000000
1.000000 0.992164 1.000000
1.000000 0.997702 1.000000
0.000000 1.000000 1.000000
0.000000 1.000000 1.000000
0.061259 1.000000 1.000000
0.269492 0.999689 1.000000
0.774481 1.000000 1.000000
1.000000 1.000000 1.000000
1.000000 1.000000 1.000000
1.000000 1.000000 1.000000
0.000000 1.000000 1.000000
0.000000 1.000000 1.000000
0.071727 1.000000 1.000000
0.261441 1.000000 1.000000
0.731837 1.000000 1.000000
0.997586 1.000000 1.000000
1.000000 1.000000 1.000000
1.000000 1.000000 1.000000
0.000000 1.000000 1.000000
0.000000 1.000000 1.000000
0.079460 1.000000 1.000000
0.262805 1.000000 1.000000
0.723213 1.000000 1.000000
0.994695 1.000000 1.000000
1.000000 1.000000 1.000000
1.000000 1.000000 1.000000
0.171237 0.278878 1.000000
0.171694 0.278784 1.000000
0.236926 0.268328 1.000000
0.883426 0.309855 1.000000
1.000000 0.731091 1.000000
1.000000 1.000000 1.000000
1.000000 1.000000 1.000000
1.000000 1.000000 1.000000
0.170762 0.278832 1.000000
0.171238 0.278672 1.000000
0.236129 0.268334 1.000000
0.882722 0.309685 1.000000
1.000000 0.729898 1.000000
1.000000 1.000000 1.000000
1.000000 1.000000 1.000000
1.000000 1.000000 1.000000
0.126240 0.276679 1.000000
0.126861 0.276648 1.000000
0.180447 0.266837 1.000000
0.763417 0.291704 1.000000
1.000000 0.625466 1.000000
1.000000 0.914126 1.000000
1.000000 0.982497 1.000000
1.000000 0.986543 1.000000
0.024926 0.559772 1.000000
0.025549 0.559656 1.000000
0.092340 0.552604 1.000000
0.484556 0.510792 1.000000
0.992981 0.576173 1.000000
1.000000 0.753029 1.000000
1.000000 0.822020 1.000000
1.000000 0.833876 1.000000
0.000000 0.905099 1.000000
0.000000 0.904802 1.000000
0.043888 0.882297 1.000000
0.322101 0.825677 1.000000
0.880972 0.888162 1.000000
1.000000 0.953565 1.000000
1.000000 0.998998 1.000000
1.000000 1.000000 1.000000
0.000000 1.000000 1.000000
0.000000 1.000000 1.000000
0.064930 1.000000 1.000000
0.271332 0.999551 1.000000
0.775819 1.000000 1.000000
1.000000 1.000000 1.000000
1.000000 1.000000 1.000000
1.000000 1.000000 1.000000
0.000000 1.000000 1.000000
0.000000 1.000000 1.000000
0.075050 1.000000 1.000000
0.262360 1.000000 1.000000
0.731308 1.000000 1.000000
0.996788 1.000000 1.000000
1.000000 1.000000 1.000000
1.000000 1.000000 1.000000
0.000000 1.000000 1.000000
0.000000 1.000000 1.000000
0.080927 1.000000 1.000000
0.261063 1.000000 1.000000
0.715425 1.000000 1.000000
0.987483 1.000000 1.000000
1.000000 1.000000 1.000000
1.000000 1.000000 1.000000
