LUTS/Candy Commercial.cube
#Created by: Damian Krzywonos for Cities Skylines 2 Lumina mod
#unity log or linear to sRGB not completely sure
TITLE "Candy Commercial"
LUT_3D_SIZE 32
DOMAIN_MIN 0.0 0.0 0.0
DOMAIN_MAX 1.0 1.0 1.0
0.000000 0.000000 0.000000
0.000000 0.000000 0.000000
0.000000 0.000000 0.000000
0.000000 0.000000 0.000000
0.000929 0.000000 0.000000
0.010525 0.000000 0.000000
0.033537 0.000000 0.000000
0.070067 0.000000 0.000000
0.142932 0.000000 0.000000
0.269706 0.000000 0.000000
0.405886 0.000000 0.000000
0.500173 0.000000 0.000000
0.602826 0.000000 0.000000
0.792086 0.000000 0.000000
0.956269 0.000000 0.000000
1.000000 0.000000 0.000000
1.000000 0.000000 0.000000
1.000000 0.000000 0.000000
1.000000 0.000000 0.000000
1.000000 0.014552 0.000000
1.000000 0.037781 0.000000
1.000000 0.053110 0.022234
1.000000 0.061953 0.040467
1.000000 0.068050 0.048690
1.000000 0.072724 0.054443
1.000000 0.076110 0.058200
1.000000 0.079008 0.061191
1.000000 0.081500 0.063627
1.000000 0.083389 0.065381
1.000000 0.085072 0.066922
1.000000 0.087214 0.068819
1.000000 0.090608 0.071611
0.000000 0.000000 0.000000
0.000000 0.000000 0.000000
0.000000 0.000000 0.000000
0.000000 0.000000 0.000000
0.000795 0.000000 0.000000
0.009734 0.000000 0.000000
0.033366 0.000000 0.000000
0.069659 0.000000 0.000000
0.142915 0.000000 0.000000
0.269694 0.000000 0.000000
0.405898 0.000000 0.000000
0.500194 0.000000 0.000000
0.602824 0.000000 0.000000
0.792009 0.000000 0.000000
0.956183 0.000000 0.000000
1.000000 0.000000 0.000000
1.000000 0.000000 0.000000
1.000000 0.000000 0.000000
1.000000 0.000000 0.000000
1.000000 0.014696 0.000000
1.000000 0.037921 0.000000
1.000000 0.053230 0.022342
1.000000 0.062018 0.040506
1.000000 0.068086 0.048677
1.000000 0.072787 0.054467
1.000000 0.076128 0.058197
1.000000 0.079041 0.061216
1.000000 0.081538 0.063660
1.000000 0.083397 0.065386
1.000000 0.085106 0.066953
1.000000 0.087250 0.068807
1.000000 0.090659 0.071642
0.000000 0.000000 0.000000
0.000000 0.000000 0.000000
0.000000 0.000000 0.000000
0.000000 0.000000 0.000000
0.000681 0.000000 0.000000
0.008761 0.000000 0.000000
0.032794 0.000000 0.000000
0.069529 0.000000 0.000000
0.142858 0.000000 0.000000
0.269646 0.000000 0.000000
0.405913 0.000000 0.000000
0.500274 0.000000 0.000000
0.602799 0.000000 0.000000
0.791735 0.000000 0.000000
0.955908 0.000000 0.000000
1.000000 0.000000 0.000000
1.000000 0.000000 0.000000
1.000000 0.000000 0.000000
1.000000 0.000000 0.000000
1.000000 0.015196 0.000000
1.000000 0.038392 0.000000
1.000000 0.053494 0.022459
1.000000 0.062294 0.040680
1.000000 0.068300 0.048787
1.000000 0.073033 0.054592
1.000000 0.076343 0.058294
1.000000 0.079262 0.061286
1.000000 0.081778 0.063739
1.000000 0.083603 0.065469
1.000000 0.085306 0.067034
1.000000 0.087451 0.068878
1.000000 0.090830 0.071681
0.000000 0.000000 0.000000
0.000000 0.000000 0.000000
0.000000 0.000000 0.000000
0.000000 0.000000 0.000000
0.000668 0.000000 0.000000
0.008200 0.000000 0.000000
0.030673 0.000000 0.000000
0.069029 0.000000 0.000000
0.142469 0.000000 0.000000
0.269536 0.000000 0.000000
0.405949 0.000000 0.000000
0.500398 0.000000 0.000000
0.602764 0.000000 0.000000
0.791287 0.000000 0.000000
0.955413 0.000000 0.000000
1.000000 0.000000 0.000000
1.000000 0.000000 0.000000
1.000000 0.000000 0.000000
1.000000 0.000000 0.000000
1.000000 0.015940 0.000000
1.000000 0.039182 0.000000
1.000000 0.053990 0.022683
1.000000 0.062689 0.040952
1.000000 0.068686 0.049011
1.000000 0.073333 0.054715
1.000000 0.076702 0.058462
1.000000 0.079603 0.061433
1.000000 0.082109 0.063876
1.000000 0.083975 0.065609
1.000000 0.085681 0.067156
1.000000 0.087831 0.069045
1.000000 0.091211 0.071835
0.000000 0.000847 0.000000
0.000000 0.000834 0.000000
0.000000 0.000787 0.000000
0.000000 0.000710 0.000000
0.000686 0.000497 0.000000
0.008221 0.000150 0.000000
0.029712 0.000000 0.000000
0.068095 0.000000 0.000000
0.141260 0.000000 0.000000
0.268417 0.000000 0.000000
0.405509 0.000000 0.000000
0.500270 0.000000 0.000000
0.602327 0.000000 0.000000
0.790259 0.000000 0.000000
0.954688 0.000000 0.000000
1.000000 0.000000 0.000000
1.000000 0.000000 0.000000
1.000000 0.000000 0.000000
1.000000 0.000000 0.000000
1.000000 0.017397 0.000000
1.000000 0.040595 0.001347
1.000000 0.054908 0.023234
1.000000 0.063423 0.041396
1.000000 0.069365 0.049393
1.000000 0.073994 0.055068
1.000000 0.077323 0.058751
1.000000 0.080263 0.061747
1.000000 0.082782 0.064183
1.000000 0.084566 0.065841
1.000000 0.086342 0.067435
1.000000 0.088442 0.069252
1.000000 0.091816 0.072022
0.000000 0.009362 0.000000
0.000000 0.009303 0.000000
0.000000 0.009049 0.000000
0.000000 0.008597 0.000000
0.000284 0.007863 0.000000
0.008177 0.005560 0.000000
0.029071 0.003382 0.000000
0.064637 0.001281 0.000000
0.135985 0.000000 0.000000
0.261891 0.000000 0.000000
0.400173 0.000000 0.000000
0.496253 0.000000 0.000000
0.597695 0.000000 0.000000
0.783492 0.000000 0.000000
0.951330 0.000000 0.000000
1.000000 0.000000 0.000000
1.000000 0.000000 0.000000
1.000000 0.000000 0.000000
1.000000 0.003958 0.000000
1.000000 0.023089 0.000000
1.000000 0.046051 0.009582
1.000000 0.058773 0.028925
1.000000 0.066786 0.043474
1.000000 0.072435 0.051072
1.000000 0.076940 0.056469
1.000000 0.080295 0.060076
1.000000 0.083208 0.063071
1.000000 0.085739 0.065491
1.000000 0.087543 0.067152
1.000000 0.089248 0.068712
1.000000 0.091383 0.070559
1.000000 0.094715 0.073344
0.000000 0.029272 0.000000
0.000000 0.029257 0.000000
0.000000 0.029128 0.000000
0.000000 0.028930 0.000000
0.000000 0.028603 0.000000
0.003126 0.027409 0.000000
0.031159 0.025403 0.000000
0.062944 0.023718 0.000000
0.124976 0.003006 0.000000
0.243660 0.000000 0.000000
0.383498 0.000000 0.000000
0.481730 0.000000 0.000000
0.579245 0.000000 0.000000
0.759473 0.000000 0.000000
0.937921 0.000000 0.000000
1.000000 0.002478 0.000000
1.000000 0.007908 0.000000
1.000000 0.011444 0.006131
1.000000 0.025583 0.010091
1.000000 0.048216 0.012363
1.000000 0.063371 0.026347
1.000000 0.072936 0.044166
1.000000 0.079813 0.054463
1.000000 0.085092 0.060808
1.000000 0.089408 0.065354
1.000000 0.092831 0.068659
1.000000 0.095628 0.071634
1.000000 0.098050 0.074027
1.000000 0.099810 0.075674
1.000000 0.101445 0.077247
1.000000 0.103452 0.079065
1.000000 0.106681 0.081948
0.000000 0.061055 0.000000
0.000000 0.061050 0.000000
0.000000 0.060987 0.000000
0.000000 0.060887 0.000000
0.000000 0.060703 0.000000
0.000867 0.059869 0.000000
0.018636 0.057602 0.000000
0.067352 0.053995 0.000000
0.129387 0.048123 0.000000
0.233592 0.020288 0.002694
0.368243 0.019434 0.001269
0.466293 0.016489 0.000000
0.550473 0.015016 0.000000
0.716632 0.015708 0.001161
0.908212 0.018068 0.007743
0.999908 0.025609 0.012107
1.000000 0.045929 0.014800
1.000000 0.067911 0.030357
1.000000 0.082020 0.054407
1.000000 0.093406 0.067072
1.000000 0.102731 0.075480
1.000000 0.110534 0.081720
1.000000 0.116936 0.086671
1.000000 0.122048 0.090562
1.000000 0.126204 0.093610
1.000000 0.129517 0.095946
1.000000 0.132348 0.097985
1.000000 0.134738 0.099663
1.000000 0.136497 0.100909
1.000000 0.138140 0.102119
1.000000 0.140166 0.103509
1.000000 0.143427 0.105741
0.000000 0.115712 0.000000
0.000000 0.115694 0.000000
0.000000 0.115634 0.000000
0.000000 0.115512 0.000000
0.000000 0.115296 0.000000
0.000000 0.114280 0.000000
0.002418 0.110912 0.000000
0.045146 0.105658 0.000000
0.143370 0.099822 0.000000
0.264917 0.104651 0.003499
0.391364 0.109669 0.017244
0.491502 0.103197 0.012315
0.548277 0.091357 0.014102
0.685176 0.090529 0.016972
0.863175 0.098003 0.031528
0.994554 0.109968 0.055234
1.000000 0.122088 0.067241
1.000000 0.134446 0.076720
1.000000 0.146592 0.084907
1.000000 0.157200 0.091804
1.000000 0.166140 0.097375
1.000000 0.173490 0.101761
1.000000 0.179525 0.105261
1.000000 0.184380 0.107986
1.000000 0.188271 0.109969
1.000000 0.191458 0.111361
1.000000 0.194179 0.112689
1.000000 0.196510 0.113835
1.000000 0.198181 0.114618
1.000000 0.199737 0.115358
1.000000 0.201751 0.116292
1.000000 0.204999 0.117877
0.000000 0.218170 0.000000
0.000000 0.218152 0.000000
0.000000 0.218065 0.000000
0.000000 0.217918 0.000000
0.000000 0.217635 0.000000
0.000000 0.216311 0.000000
0.000000 0.211518 0.000000
0.017398 0.201810 0.000000
0.109890 0.190551 0.000000
0.270934 0.179415 0.000806
0.448147 0.190293 0.015875
0.551567 0.199396 0.042088
0.592416 0.190779 0.055666
0.677912 0.184733 0.061008
0.819013 0.192953 0.070437
0.953975 0.203824 0.080655
1.000000 0.214876 0.089261
1.000000 0.223834 0.095383
1.000000 0.231996 0.100593
1.000000 0.239277 0.105003
1.000000 0.245386 0.108519
1.000000 0.250505 0.111300
1.000000 0.254587 0.113545
1.000000 0.257869 0.115317
1.000000 0.260576 0.116645
1.000000 0.262692 0.117634
1.000000 0.264561 0.118541
1.000000 0.266192 0.119378
1.000000 0.267301 0.119952
1.000000 0.268239 0.120371
1.000000 0.269696 0.121073
1.000000 0.271906 0.122048
0.000000 0.362380 0.000000
0.000000 0.362362 0.000000
0.000000 0.362281 0.000000
0.000000 0.362156 0.000000
0.000000 0.361917 0.000000
0.000000 0.360768 0.000000
0.000000 0.356010 0.000000
0.015559 0.344627 0.000000
0.094653 0.330330 0.000000
0.211801 0.311387 0.000000
0.445094 0.299161 0.004043
0.629608 0.307011 0.042638
0.678440 0.297439 0.062466
0.717528 0.286109 0.068158
0.822790 0.302367 0.081522
0.939557 0.318552 0.094769
1.000000 0.334289 0.108293
1.000000 0.345856 0.117564
1.000000 0.353235 0.122545
1.000000 0.358682 0.125940
1.000000 0.362806 0.128232
1.000000 0.365972 0.129846
1.000000 0.368541 0.131154
1.000000 0.370498 0.132164
1.000000 0.372115 0.132949
1.000000 0.373361 0.133509
1.000000 0.374587 0.134132
1.000000 0.375471 0.134517
1.000000 0.376112 0.134784
1.000000 0.376694 0.135041
1.000000 0.377476 0.135370
1.000000 0.378748 0.135909
0.000000 0.473556 0.000000
0.000000 0.473538 0.000000
0.000000 0.473482 0.000000
0.000000 0.473404 0.000000
0.000000 0.473399 0.000000
0.000000 0.473541 0.000000
0.000000 0.473993 0.000000
0.017111 0.474137 0.000000
0.093568 0.471037 0.000000
0.192812 0.460196 0.000000
0.350078 0.439389 0.000000
0.598950 0.414568 0.019563
0.743090 0.401861 0.068816
0.799064 0.395826 0.075021
0.888967 0.413635 0.085275
0.958514 0.432022 0.096538
1.000000 0.452068 0.110550
1.000000 0.472018 0.126018
1.000000 0.486338 0.136704
1.000000 0.496073 0.143883
1.000000 0.503180 0.149644
1.000000 0.508497 0.153922
1.000000 0.512269 0.156666
1.000000 0.515101 0.158666
1.000000 0.517306 0.160113
1.000000 0.518848 0.161087
1.000000 0.520210 0.162010
1.000000 0.521228 0.162647
1.000000 0.522115 0.163157
1.000000 0.522656 0.163399
1.000000 0.523643 0.163978
1.000000 0.524987 0.164704
0.000000 0.535356 0.000000
0.000000 0.535332 0.000000
0.000000 0.535265 0.000000
0.000000 0.535145 0.000000
0.000000 0.535091 0.000000
0.000000 0.535045 0.000000
0.004574 0.535208 0.000000
0.023382 0.538045 0.000000
0.095932 0.545284 0.000000
0.185106 0.542780 0.000000
0.305190 0.529373 0.000000
0.467930 0.503052 0.005237
0.676164 0.473457 0.049054
0.858371 0.483532 0.079794
0.939237 0.505485 0.086968
0.994091 0.525131 0.098442
1.000000 0.543594 0.108727
1.000000 0.561306 0.117270
1.000000 0.578683 0.126078
1.000000 0.593769 0.135549
1.000000 0.606081 0.144940
1.000000 0.615846 0.153328
1.000000 0.623191 0.159607
1.000000 0.628791 0.164432
1.000000 0.633187 0.168199
1.000000 0.636404 0.171022
1.000000 0.639052 0.173351
1.000000 0.641320 0.175394
1.000000 0.643006 0.176869
1.000000 0.644399 0.178039
1.000000 0.646299 0.179686
1.000000 0.649264 0.182326
0.003961 0.657357 0.000000
0.004012 0.657329 0.000000
0.004656 0.657250 0.000000
0.005264 0.657112 0.000000
0.006411 0.656868 0.000000
0.010021 0.655684 0.000000
0.019230 0.651154 0.000000
0.049122 0.639528 0.000000
0.094747 0.622927 0.000000
0.174882 0.606119 0.000000
0.275511 0.589570 0.000000
0.415151 0.571596 0.000000
0.575185 0.561446 0.012439
0.794832 0.562140 0.060797
0.964270 0.572315 0.090606
1.000000 0.590913 0.098735
1.000000 0.610135 0.105608
1.000000 0.626750 0.114364
1.000000 0.641867 0.121373
1.000000 0.656461 0.127858
1.000000 0.669227 0.133840
1.000000 0.679870 0.139368
1.000000 0.688314 0.144095
1.000000 0.694989 0.148253
1.000000 0.700397 0.151831
1.000000 0.704639 0.154893
1.000000 0.708190 0.157534
1.000000 0.711328 0.159914
1.000000 0.713653 0.161811
1.000000 0.715612 0.163394
1.000000 0.718284 0.165629
1.000000 0.722608 0.169338
0.030767 0.776393 0.000000
0.030822 0.776375 0.000000
0.031696 0.776277 0.000000
0.032539 0.776133 0.000000
0.033768 0.775867 0.000000
0.038341 0.774588 0.000000
0.050341 0.769572 0.000000
0.072112 0.756860 0.000000
0.110050 0.737550 0.000000
0.190062 0.717356 0.000000
0.284099 0.698246 0.000000
0.411721 0.676579 0.000000
0.556056 0.659696 0.002201
0.692423 0.650306 0.030985
0.900975 0.648823 0.073478
0.996845 0.654476 0.100439
1.000000 0.667198 0.109961
1.000000 0.683351 0.111586
1.000000 0.697918 0.115932
1.000000 0.710619 0.122066
1.000000 0.722223 0.128533
1.000000 0.732634 0.134181
1.000000 0.741467 0.138836
1.000000 0.748688 0.142583
1.000000 0.754488 0.145575
1.000000 0.759003 0.147845
1.000000 0.762795 0.149813
1.000000 0.766047 0.151481
1.000000 0.768532 0.152766
1.000000 0.770565 0.153903
1.000000 0.773294 0.155523
1.000000 0.777699 0.157944
0.065724 0.888512 0.000000
0.065759 0.888487 0.000000
0.065884 0.888385 0.000000
0.066112 0.888203 0.000000
0.066447 0.887900 0.000000
0.068178 0.886438 0.000000
0.074668 0.880793 0.000000
0.091359 0.866291 0.000000
0.130235 0.843610 0.000000
0.211509 0.818577 0.000000
0.300972 0.795425 0.000000
0.415098 0.770063 0.000000
0.553676 0.748977 0.000000
0.671527 0.734205 0.017287
0.800768 0.727235 0.054365
0.970348 0.726261 0.085168
1.000000 0.729623 0.107565
1.000000 0.738363 0.118522
1.000000 0.751064 0.120406
1.000000 0.764325 0.120965
1.000000 0.775846 0.123632
1.000000 0.785871 0.128410
1.000000 0.794453 0.133642
1.000000 0.801443 0.138418
1.000000 0.807340 0.142678
1.000000 0.811930 0.145799
1.000000 0.815861 0.148286
1.000000 0.819281 0.150266
1.000000 0.821938 0.151818
1.000000 0.824050 0.153068
1.000000 0.826986 0.154734
1.000000 0.831591 0.157090
0.082412 0.972364 0.000000
0.082447 0.972349 0.000000
0.082560 0.972303 0.000000
0.082748 0.972206 0.000000
0.083087 0.972086 0.000000
0.084620 0.971515 0.000000
0.090409 0.969148 0.000000
0.107956 0.961592 0.000000
0.152981 0.941521 0.000000
0.237062 0.911180 0.000000
0.322534 0.883555 0.000000
0.424563 0.854332 0.000000
0.555895 0.829154 0.000000
0.673675 0.810798 0.017548
0.771923 0.797465 0.049049
0.899910 0.793592 0.070499
0.993760 0.792069 0.094765
1.000000 0.794046 0.112395
1.000000 0.799756 0.124374
1.000000 0.808510 0.129785
1.000000 0.818874 0.130364
1.000000 0.829149 0.129897
1.000000 0.838378 0.130792
1.000000 0.846030 0.132974
1.000000 0.852302 0.136091
1.000000 0.857086 0.139200
1.000000 0.861219 0.142042
1.000000 0.864729 0.144609
1.000000 0.867497 0.146845
1.000000 0.869623 0.148571
1.000000 0.872674 0.151131
1.000000 0.878018 0.155547
0.095777 1.000000 0.000000
0.095822 1.000000 0.000000
0.095886 1.000000 0.000000
0.096028 1.000000 0.000000
0.096346 1.000000 0.000000
0.097740 1.000000 0.000000
0.103132 1.000000 0.000000
0.122340 0.999828 0.000000
0.175212 0.996374 0.000000
0.262513 0.981060 0.000000
0.345598 0.961080 0.000000
0.437231 0.930093 0.000000
0.561021 0.901156 0.000000
0.679235 0.879508 0.018816
0.772485 0.862865 0.050385
0.865274 0.852923 0.065347
0.969684 0.850742 0.083231
1.000000 0.848921 0.102063
1.000000 0.850060 0.116410
1.000000 0.853965 0.128414
1.000000 0.859484 0.136601
1.000000 0.866583 0.140314
1.000000 0.874120 0.140760
1.000000 0.881488 0.140144
1.000000 0.888375 0.139686
1.000000 0.894276 0.140139
1.000000 0.899138 0.140523
1.000000 0.903251 0.141338
1.000000 0.906290 0.142484
1.000000 0.908791 0.143551
1.000000 0.912091 0.145423
1.000000 0.917824 0.149405
0.107913 1.000000 0.000000
0.107954 1.000000 0.000000
0.107985 1.000000 0.000000
0.108125 1.000000 0.000000
0.108407 1.000000 0.000000
0.109705 1.000000 0.000000
0.114908 1.000000 0.000000
0.136627 1.000000 0.000000
0.197690 1.000000 0.000000
0.285505 1.000000 0.000000
0.367138 0.998629 0.000000
0.450641 0.986909 0.000000
0.567402 0.964849 0.005085
0.685131 0.940296 0.023943
0.777406 0.921057 0.052930
0.858289 0.907507 0.065593
0.949329 0.901761 0.078678
0.998536 0.899661 0.093177
1.000000 0.898081 0.107665
1.000000 0.898832 0.120212
1.000000 0.901546 0.131291
1.000000 0.905227 0.140381
1.000000 0.910035 0.147350
1.000000 0.914820 0.150718
1.000000 0.919946 0.151903
1.000000 0.924863 0.152196
1.000000 0.929543 0.151831
1.000000 0.933695 0.151267
1.000000 0.936936 0.150805
1.000000 0.939753 0.150423
1.000000 0.943533 0.150178
1.000000 0.949735 0.150162
0.119095 1.000000 0.000000
0.119162 1.000000 0.000000
0.119217 1.000000 0.000000
0.119354 1.000000 0.000000
0.119619 1.000000 0.000000
0.120937 1.000000 0.000000
0.126372 1.000000 0.000000
0.150839 1.000000 0.000000
0.219886 1.000000 0.000000
0.307279 1.000000 0.000000
0.386364 1.000000 0.000000
0.463708 1.000000 0.000000
0.573879 0.998396 0.007934
0.690271 0.987872 0.031832
0.782456 0.972224 0.055409
0.859947 0.956350 0.067169
0.938536 0.946587 0.077819
0.992432 0.943550 0.088860
1.000000 0.941755 0.100847
1.000000 0.940573 0.112896
1.000000 0.941101 0.123806
1.000000 0.943549 0.134064
1.000000 0.946307 0.142751
1.000000 0.949189 0.150200
1.000000 0.952098 0.155578
1.000000 0.954990 0.158748
1.000000 0.958009 0.160817
1.000000 0.961053 0.161928
1.000000 0.963610 0.162333
1.000000 0.965960 0.162424
1.000000 0.969254 0.162355
1.000000 0.975159 0.161506
0.129560 1.000000 0.000000
0.129631 1.000000 0.000000
0.129741 1.000000 0.000000
0.129839 1.000000 0.000000
0.130123 1.000000 0.000000
0.131389 1.000000 0.000000
0.138276 1.000000 0.000000
0.167530 1.000000 0.000000
0.241116 1.000000 0.000000
0.327842 1.000000 0.000000
0.404595 1.000000 0.000000
0.475855 1.000000 0.000000
0.580487 1.000000 0.009693
0.695225 0.999960 0.035866
0.787333 0.998485 0.057548
0.863135 0.991983 0.068751
0.936670 0.986220 0.078142
0.986717 0.981331 0.087049
1.000000 0.979776 0.096814
1.000000 0.978195 0.107515
1.000000 0.977757 0.118043
1.000000 0.978396 0.127777
1.000000 0.979957 0.136325
1.000000 0.981665 0.143571
1.000000 0.983458 0.150254
1.000000 0.985164 0.155605
1.000000 0.986918 0.160086
1.000000 0.988803 0.163472
1.000000 0.990456 0.165707
1.000000 0.991298 0.167376
1.000000 0.992343 0.169125
1.000000 0.994315 0.170954
0.139772 1.000000 0.000000
0.139745 1.000000 0.000000
0.139897 1.000000 0.000000
0.140026 1.000000 0.000000
0.140307 1.000000 0.000000
0.141748 1.000000 0.000000
0.150274 1.000000 0.000000
0.186134 1.000000 0.000000
0.260900 1.000000 0.000000
0.346797 1.000000 0.000000
0.421601 1.000000 0.000000
0.487565 1.000000 0.000000
0.586463 1.000000 0.009568
0.699902 1.000000 0.037014
0.792258 1.000000 0.058674
0.866886 1.000000 0.069461
0.938377 0.999746 0.078468
0.986372 0.998539 0.085792
1.000000 0.997494 0.094275
1.000000 0.997145 0.103374
1.000000 0.996766 0.113078
1.000000 0.996813 0.122171
1.000000 0.997030 0.130322
1.000000 0.997463 0.137316
1.000000 0.997969 0.143445
1.000000 0.998452 0.148683
1.000000 0.998914 0.153666
1.000000 0.999413 0.158154
1.000000 0.999875 0.161499
1.000000 0.999995 0.164301
1.000000 1.000000 0.167859
1.000000 1.000000 0.172677
0.148864 1.000000 0.000000
0.148906 1.000000 0.000000
0.148968 1.000000 0.000000
0.149207 1.000000 0.000000
0.149497 1.000000 0.000000
0.151461 1.000000 0.000000
0.162459 1.000000 0.000000
0.202546 1.000000 0.000000
0.278258 1.000000 0.000000
0.363905 1.000000 0.000000
0.437214 1.000000 0.000000
0.498611 1.000000 0.000000
0.592345 1.000000 0.009230
0.704181 1.000000 0.036536
0.796813 1.000000 0.058980
0.870668 1.000000 0.069744
0.940638 1.000000 0.078521
0.987224 1.000000 0.085722
1.000000 1.000000 0.092934
1.000000 1.000000 0.101555
1.000000 1.000000 0.110285
1.000000 1.000000 0.118154
1.000000 1.000000 0.125594
1.000000 1.000000 0.132345
1.000000 1.000000 0.138331
1.000000 1.000000 0.143116
1.000000 1.000000 0.147586
1.000000 1.000000 0.151914
1.000000 1.000000 0.155337
1.000000 1.000000 0.158430
1.000000 1.000000 0.162651
1.000000 1.000000 0.169299
0.157629 1.000000 0.000000
0.157793 1.000000 0.000000
0.157937 1.000000 0.000000
0.158295 1.000000 0.000000
0.158805 1.000000 0.000000
0.161844 1.000000 0.000000
0.175038 1.000000 0.000000
0.216694 1.000000 0.000000
0.292661 1.000000 0.000000
0.378186 1.000000 0.000000
0.450373 1.000000 0.000000
0.508381 1.000000 0.000000
0.597867 1.000000 0.009089
0.708110 1.000000 0.036194
0.800803 1.000000 0.059076
0.874156 1.000000 0.069976
0.942911 1.000000 0.078702
0.988126 1.000000 0.085993
1.000000 1.000000 0.092465
1.000000 1.000000 0.100412
1.000000 1.000000 0.108479
1.000000 1.000000 0.115674
1.000000 1.000000 0.122318
1.000000 1.000000 0.128557
1.000000 1.000000 0.134352
1.000000 1.000000 0.139084
1.000000 1.000000 0.143295
1.000000 1.000000 0.147180
1.000000 1.000000 0.150282
1.000000 1.000000 0.153181
1.000000 1.000000 0.157288
1.000000 1.000000 0.164387
0.168178 1.000000 0.000000
0.168243 1.000000 0.000000
0.168578 1.000000 0.000000
0.168861 1.000000 0.000000
0.169605 1.000000 0.000000
0.172967 1.000000 0.000000
0.186998 1.000000 0.000000
0.229074 1.000000 0.000000
0.304911 1.000000 0.000000
0.390059 1.000000 0.000000
0.461809 1.000000 0.000000
0.517422 1.000000 0.000000
0.602909 1.000000 0.009331
0.711902 1.000000 0.036501
0.804565 1.000000 0.059293
0.877321 1.000000 0.070181
0.945059 1.000000 0.078899
0.989031 1.000000 0.086620
1.000000 1.000000 0.092820
1.000000 1.000000 0.099797
1.000000 1.000000 0.107265
1.000000 1.000000 0.114033
1.000000 1.000000 0.120051
1.000000 1.000000 0.125766
1.000000 1.000000 0.131182
1.000000 1.000000 0.135757
1.000000 1.000000 0.139934
1.000000 1.000000 0.143651
1.000000 1.000000 0.146513
1.000000 1.000000 0.149058
1.000000 1.000000 0.152862
1.000000 1.000000 0.159740
0.177650 1.000000 0.000000
0.177494 1.000000 0.000000
0.177900 1.000000 0.000000
0.178144 1.000000 0.000000
0.178981 1.000000 0.000000
0.182465 1.000000 0.000000
0.196850 1.000000 0.000000
0.239143 1.000000 0.000000
0.314841 1.000000 0.000000
0.399516 1.000000 0.000000
0.470658 1.000000 0.000000
0.524901 1.000000 0.000000
0.607954 1.000000 0.010524
0.715901 1.000000 0.038534
0.808545 1.000000 0.060463
0.880857 1.000000 0.071158
0.947774 1.000000 0.079786
0.990166 1.000000 0.087186
1.000000 1.000000 0.093348
1.000000 1.000000 0.099605
1.000000 1.000000 0.106539
1.000000 1.000000 0.113261
1.000000 1.000000 0.118730
1.000000 1.000000 0.123829
1.000000 1.000000 0.128949
1.000000 1.000000 0.133284
1.000000 1.000000 0.137347
1.000000 1.000000 0.140972
1.000000 1.000000 0.143802
1.000000 1.000000 0.146186
1.000000 1.000000 0.149630
1.000000 1.000000 0.155999
0.186148 1.000000 0.000000
0.185935 1.000000 0.000000
0.186360 1.000000 0.000000
0.186619 1.000000 0.000000
0.187471 1.000000 0.000000
0.190943 1.000000 0.000000
0.205578 1.000000 0.000000
0.248149 1.000000 0.000000
0.323770 1.000000 0.000000
0.407858 1.000000 0.000000
0.478306 1.000000 0.000000
0.531037 1.000000 0.000000
0.612098 1.000000 0.010799
0.719153 1.000000 0.039486
0.811785 1.000000 0.061023
0.883570 1.000000 0.071642
0.949691 1.000000 0.080180
0.991092 1.000000 0.087589
1.000000 1.000000 0.093694
1.000000 1.000000 0.099477
1.000000 1.000000 0.106002
1.000000 1.000000 0.112468
1.000000 1.000000 0.117751
1.000000 1.000000 0.122496
1.000000 1.000000 0.127154
1.000000 1.000000 0.131242
1.000000 1.000000 0.135181
1.000000 1.000000 0.138707
1.000000 1.000000 0.141442
1.000000 1.000000 0.143855
1.000000 1.000000 0.147111
1.000000 1.000000 0.153008
0.193597 1.000000 0.000000
0.193561 1.000000 0.000000
0.193834 1.000000 0.000000
0.194226 1.000000 0.000000
0.194933 1.000000 0.000000
0.198387 1.000000 0.000000
0.213290 1.000000 0.000000
0.256008 1.000000 0.000000
0.331381 1.000000 0.000000
0.415292 1.000000 0.000000
0.485170 1.000000 0.000000
0.536467 1.000000 0.000000
0.615620 1.000000 0.011003
0.721917 1.000000 0.039923
0.814543 1.000000 0.061350
0.885972 1.000000 0.071931
0.951354 1.000000 0.080405
